!!! Genre: Buxtehude Chorale Prelude
!!! Title: Nun Bitten 208
!!! Number: 4
!!! Level: 1
**kern	**fb	**text	**kern
*clefF4	*clefF4	*	*clefG2
*k[f#]	*k[f#]	*	*k[f#]
*met(c)	*met(c)	*	*met(c)
*G:	*G:	*	*G:
=1	=1	=1	=1
4.C	5	.	r1
8BB	.	.	.
2AA	5	.	.
=2	=	=	=
1D	#	.	2a
.	4	.	.
.	4	.	2a
.	#	.	.
=3	=	=	=
2.GG	5	.	2b
.	.	.	2a
4D	#	.	.
=4	=	=	=
4E	7	.	2g
.	6	.	.
4BB	6	.	.
2C	9	.	2e
.	8 6	.	.
=5	=	=	=
2C	4|/	4#	2f#
2BB	6	.	2g
=6	=	=	=
2C#	5-	5n	2a
2D	#	.	2a
=7	=	=	=
2E	5	.	2g
2BB	5-	5n	2fn
=8	=	=	=
2.C	9	.	1e
.	8	.	.
4AA	5	.	.
=9	=	=	=
2.BB	5	.	2d
.	6	.	.
.	.	.	2g
4C	5	.	.
=10	=	=	=
1D	6 4	.	2g
.	5 3	.	2f#
=11	=	=	=
1G	5	.	1g
==	==	==	==
*-	*-	*-	*-
